relation-only-one-to-many.svg

<svg fill="currentColor" viewBox="0 0 24 24"><path d="M22 13v6h-1l-2-2h-8V9H8v2H6V9H5v2H3V9H2V7h1V5h2v2h1V5h2v2h5v8h6l2-2Z"/></svg>

<svg  viewBox="0 0 24 24" fill="currentColor"><path  d="M22 13V19H21L19 17H11V9H8V11H6V9H5V11H3V9H2V7H3V5H5V7H6V5H8V7H13V15H19L21 13Z"/></svg>
